X:1
T:Title
%%score ( 1 2 ) { 3 | 4 }
L:1/8
Q:1/4=106
M:4/4
K:Eb
V:1 treble nm="Grand Piano, Staff 1"
V:2 treble 
V:3 bass nm="Choir Pad, Mariners, 87.87"
V:4 bass 
V:1
 [EB]2 [Ec]2 BAGA | [EB]2 [Ec]2 BA[EG][FA] | [FB]2 [DB]2 [Fc]2 [Fd][Ge] | [Fd]2 [Ec]2 [DB]4 | %4
w: By~Sicilian~Tune * * * * *||||
 [DF][EG][DF][EG] [FA]2 [DA]2 | [EG][FA][EG][FA] [GB]2 [EB]2 | edcB ec[EB][FA] | [EG]2 [DF]2 E4- | %8
w: ||||
 E4 z4 |] %9
w: |
V:2
 z4 E2 E2 | z4 D2 z2 | x8 | x8 | x8 | x8 | E2 E2 E2 z2 | x8 | x8 |] %9
V:3
 G,2 A,2 G,F,E,F, | G,2 A,2 F,2 E,2 | B,2 B,2 =A,2 B,E, | B,2 =A,2 B,4 | B,2 B,2 B,2 B,2 | %5
 B,2 B,2 EB, G,2 | G,B,A,G, A,2 B,C | B,2 A,2 G,4- | G,4 z4 |] %9
V:4
 E,2 A,,2 E,2 z2 | E,2 A,,2 B,,2 z2 | D,2 G,2 F,2 z2 | F,2 F,2 B,,4 | B,,2 B,,2 D,2 B,,2 | %5
 E,2 E,2 E,2 E,2 | E,2 E,2 C,A,,G,,A,, | B,,2 B,,2 E,4- | E,4 z4 |] %9

